images/brand-images/RESURGENT-v2.svg

<?xml version="1.0" encoding="UTF-8" standalone="no"?>
<svg width="800px" height="600px" viewBox="0 0 800 600" version="1.1" xmlns="http://www.w3.org/2000/svg" xmlns:xlink="http://www.w3.org/1999/xlink" xmlns:sketch="http://www.bohemiancoding.com/sketch/ns">
    <!-- Generator: Sketch 3.5.2 (25235) - http://www.bohemiancoding.com/sketch -->
    <title>dribbble copy 3</title>
    <desc>Created with Sketch.</desc>
    <defs></defs>
    <g id="View---Landing-(Transition)" stroke="none" stroke-width="1" fill="none" fill-rule="evenodd" sketch:type="MSPage">
        <g id="dribbble-copy-3" sketch:type="MSArtboardGroup">
            <path d="M247.260956,152.901214 L285.166318,205.109899 L262.56584,205.109899 L227.594575,154.964171 L224.263979,154.964171 L224.263979,205.109899 L205.787097,205.109899 L205.787097,82.6019813 L227.435975,82.6019813 C243.61324,82.6019813 255.296645,85.6434903 262.48654,91.7265995 C270.416572,98.4973646 274.381528,107.436756 274.381528,118.545043 C274.381528,127.220085 271.896822,134.678394 266.927336,140.920193 C261.957849,147.161992 255.402455,151.155626 247.260956,152.901214 L247.260956,152.901214 Z M224.263979,138.857236 L230.132173,138.857236 C247.631109,138.857236 256.380446,132.165916 256.380446,118.783076 C256.380446,106.246581 247.869007,99.9784282 230.845872,99.9784282 L224.263979,99.9784282 L224.263979,138.857236 Z M427.757945,99.8990837 L378.671294,99.8990837 L378.671294,129.335895 L426.330546,129.335895 L426.330546,146.712342 L378.671294,146.712342 L378.671294,187.654107 L427.757945,187.654107 L427.757945,205.030554 L360.194412,205.030554 L360.194412,82.5226368 L427.757945,82.5226368 L427.757945,99.8990837 Z M578.249674,98.6295716 L563.261989,107.516156 C560.460044,102.649669 557.790307,99.4759204 555.252697,97.9948155 C552.609353,96.3021243 549.19949,95.4557913 545.023007,95.4557913 C539.89492,95.4557913 535.6392,96.9104261 532.25572,99.8197392 C528.87224,102.676156 527.180525,106.273071 527.180525,110.610592 C527.180525,116.587908 531.621276,121.401427 540.502912,125.051292 L552.715099,130.049996 C562.654072,134.070138 569.923159,138.976224 574.522578,144.768402 C579.121996,150.56058 581.421671,157.661842 581.421671,166.072402 C581.421671,177.339378 577.668179,186.64904 570.161082,194.001668 C562.601118,201.407192 553.217388,205.109899 542.00961,205.109899 C531.383368,205.109899 522.607598,201.962598 515.682037,195.667902 C508.862209,189.373207 504.606489,180.513159 502.914749,169.087493 L521.629531,164.961579 C522.475401,172.155516 523.955651,177.127722 526.070326,179.878346 C529.876741,185.168006 535.42768,187.812796 542.723309,187.812796 C548.485799,187.812796 553.27018,185.882099 557.076595,182.020647 C560.88301,178.159195 562.786189,173.266333 562.786189,167.341914 C562.786189,164.961567 562.455776,162.779615 561.79494,160.795992 C561.134104,158.812369 560.103216,156.987464 558.702243,155.321221 C557.301271,153.654978 555.490608,152.094552 553.270199,150.639895 C551.04979,149.185239 548.406486,147.796724 545.340207,146.474309 L533.524519,141.554949 C516.765718,134.466805 508.386444,124.099226 508.386444,110.451903 C508.386444,101.247894 511.902038,93.5515541 518.933333,87.3626517 C525.964628,81.1208527 534.713965,78 545.181607,78 C559.297063,78 570.319642,84.8764551 578.249674,98.6295716 L578.249674,98.6295716 Z M217.476881,235.25898 L217.476881,309.049371 C217.476881,319.575794 219.195029,327.272134 222.631376,332.138622 C227.759463,339.17387 234.975684,342.691441 244.280255,342.691441 C253.637692,342.691441 260.880346,339.17387 266.008433,332.138622 C269.44478,327.430824 271.162928,319.734484 271.162928,309.049371 L271.162928,235.25898 L289.639809,235.25898 L289.639809,314.127419 C289.639809,327.03419 285.621987,337.666247 277.586221,346.02391 C268.545985,355.333712 257.444107,359.988543 244.280255,359.988543 C231.116402,359.988543 220.040957,355.333712 211.053588,346.02391 C203.017822,337.666247 199,327.03419 199,314.127419 L199,235.25898 L217.476881,235.25898 Z M433.883437,357.766897 L411.282959,357.766897 L376.311694,307.621169 L372.981098,307.621169 L372.981098,357.766897 L354.504216,357.766897 L354.504216,235.25898 L376.153094,235.25898 C392.330359,235.25898 404.013764,238.300489 411.203659,244.383598 C419.133691,251.154363 423.098647,260.093755 423.098647,271.202041 C423.098647,279.877084 420.613941,287.335393 415.644455,293.577192 C410.674968,299.818991 404.119574,303.812624 395.978075,305.558212 L433.883437,357.766897 Z M374.480232,291.514235 L380.348426,291.514235 C397.847363,291.514235 406.5967,284.822915 406.5967,271.440075 C406.5967,258.90358 398.08526,252.635427 381.062125,252.635427 L374.480232,252.635427 L374.480232,291.514235 Z M551.406651,296.35425 L602,296.35425 L602,300.400819 C602,309.604828 600.916245,317.750783 598.748703,324.838927 C596.634028,331.398106 593.065567,337.53402 588.043214,343.246853 C576.676835,356.04783 562.217961,362.448223 544.666157,362.448223 C527.537289,362.448223 512.86695,356.259413 500.654702,343.881609 C488.442453,331.450907 482.33642,316.534289 482.33642,299.131307 C482.33642,281.358049 488.548185,266.282744 500.971901,253.904939 C513.395618,241.474237 528.515318,235.25898 546.331456,235.25898 C555.900361,235.25898 564.834729,237.216125 573.134829,241.130473 C581.064861,245.044822 588.862608,251.392319 596.528305,260.173155 L583.364519,272.788931 C573.319812,259.406091 561.081313,252.714771 546.648655,252.714771 C533.69627,252.714771 522.83229,257.184467 514.056388,266.123993 C505.280486,274.904829 500.892601,285.907157 500.892601,299.131307 C500.892601,312.778631 505.782714,324.01899 515.563087,332.852722 C524.709057,341.051696 534.621447,345.151121 545.300557,345.151121 C554.39366,345.151121 562.56147,342.083164 569.804232,335.947158 C577.046995,329.758256 581.09125,322.352842 581.93712,313.730696 L551.406651,313.730696 L551.406651,296.35425 Z M278.347744,409.973751 L229.261094,409.973751 L229.261094,439.410563 L276.920346,439.410563 L276.920346,456.78701 L229.261094,456.78701 L229.261094,497.728775 L278.347744,497.728775 L278.347744,515.105222 L210.784212,515.105222 L210.784212,392.597304 L278.347744,392.597304 L278.347744,409.973751 Z M340.418354,515.541616 L340.418354,384.702526 L429.710065,478.170354 L429.710065,393.033699 L448.186946,393.033699 L448.186946,523 L358.895236,429.770205 L358.895236,515.541616 L340.418354,515.541616 Z M551.541949,409.973751 L551.541949,515.105222 L533.065067,515.105222 L533.065067,409.973751 L504.913595,409.973751 L504.913595,392.597304 L579.61412,392.597304 L579.61412,409.973751 L551.541949,409.973751 Z" id="RESURGENT" sketch:type="MSShapeGroup"></path>
        </g>
    </g>
</svg>

<svg width="800" height="600" viewBox="0 0 800 600" xmlns="http://www.w3.org/2000/svg"><title>dribbble copy 3</title><desc>Created with Sketch.</desc><path d="M247.26 152.9l37.906 52.21h-22.6l-34.97-50.146h-3.332v50.146h-18.477V82.602h21.65c16.176 0 27.86 3.04 35.05 9.125 7.93 6.77 11.895 15.71 11.895 26.818 0 8.675-2.485 16.133-7.455 22.375-4.97 6.242-11.525 10.236-19.666 11.98zm-22.996-14.043h5.868c17.5 0 26.248-6.69 26.248-20.074 0-12.536-8.51-18.805-25.534-18.805h-6.582v38.88zM427.758 99.9H378.67v29.436h47.66v17.376h-47.66v40.942h49.088v17.377h-67.564V82.524h67.564V99.9zm150.492-1.27l-14.988 8.886c-2.802-4.866-5.472-8.04-8.01-9.52-2.643-1.694-6.053-2.54-10.23-2.54-5.127 0-9.383 1.454-12.766 4.364-3.384 2.856-5.075 6.453-5.075 10.79 0 5.978 4.44 10.79 13.323 14.44l12.212 5c9.94 4.02 17.208 8.926 21.808 14.718 4.6 5.793 6.9 12.894 6.9 21.304 0 11.267-3.755 20.577-11.262 27.93-7.56 7.405-16.943 11.108-28.15 11.108-10.627 0-19.402-3.147-26.328-9.442-6.82-6.295-11.076-15.155-12.767-26.58l18.715-4.126c.845 7.194 2.326 12.166 4.44 14.916 3.807 5.29 9.358 7.935 16.653 7.935 5.763 0 10.547-1.93 14.354-5.792 3.806-3.86 5.71-8.754 5.71-14.678 0-2.38-.33-4.562-.992-6.546-.66-1.984-1.692-3.81-3.093-5.475-1.4-1.665-3.21-3.225-5.432-4.68-2.22-1.455-4.864-2.843-7.93-4.166l-11.815-4.92c-16.76-7.087-25.14-17.455-25.14-31.102 0-9.204 3.517-16.9 10.548-23.09 7.032-6.24 15.78-9.362 26.25-9.362 14.114 0 25.137 6.876 33.067 20.63zM217.477 235.26v73.79c0 10.526 1.718 18.222 5.154 23.09 5.13 7.034 12.346 10.55 21.65 10.55 9.358 0 16.6-3.516 21.728-10.55 3.437-4.71 5.155-12.406 5.155-23.09v-73.79h18.477v78.867c0 12.907-4.018 23.54-12.054 31.897-9.04 9.31-20.142 13.965-33.306 13.965-13.164 0-24.24-4.656-33.226-13.966-8.036-8.358-12.054-18.99-12.054-31.897V235.26h18.477zm216.406 122.507h-22.6l-34.97-50.146h-3.332v50.147h-18.476V235.26h21.65c16.176 0 27.86 3.04 35.05 9.124 7.93 6.77 11.895 15.71 11.895 26.818 0 8.675-2.486 16.133-7.456 22.375-4.97 6.242-11.524 10.236-19.666 11.98l37.905 52.21zm-59.403-66.253h5.868c17.5 0 26.25-6.69 26.25-20.074 0-12.536-8.513-18.805-25.536-18.805h-6.582v38.88zm176.927 4.84H602v4.047c0 9.205-1.084 17.35-3.25 24.44-2.116 6.558-5.684 12.694-10.707 18.407-11.366 12.8-25.825 19.2-43.377 19.2-17.13 0-31.8-6.188-44.01-18.565-12.214-12.43-18.32-27.348-18.32-44.75 0-17.774 6.212-32.85 18.636-45.227 12.424-12.43 27.543-18.646 45.36-18.646 9.568 0 18.503 1.956 26.803 5.87 7.93 3.915 15.728 10.262 23.393 19.043l-13.163 12.616c-10.045-13.384-22.284-20.075-36.716-20.075-12.954 0-23.818 4.47-32.594 13.41-8.776 8.78-13.163 19.782-13.163 33.006 0 13.65 4.89 24.89 14.67 33.723 9.146 8.2 19.058 12.298 29.738 12.298 9.094 0 17.26-3.067 24.504-9.203 7.243-6.19 11.287-13.594 12.133-22.216h-30.53v-17.376zm-273.06 113.62h-49.086v29.437h47.66v17.377h-47.66v40.942h49.088v17.375h-67.564V392.597h67.564v17.377zm62.07 105.568v-130.84l89.293 93.468v-85.136h18.477V523l-89.292-93.23v85.772h-18.477zm211.125-105.568v105.13h-18.477v-105.13h-28.15v-17.377h74.7v17.377H551.54z" fill="none"/></svg>
